Arsenal/img/howWeWorkIcon2.svg

<svg width="40" height="40" viewBox="0 0 40 40" fill="none" xmlns="http://www.w3.org/2000/svg">
<path d="M26.1013 33.9424L22.3895 30.2306C21.7745 29.6156 20.7774 29.6156 20.1624 30.2306L17.9353 32.4577C13.3747 30.2975 9.70248 26.6252 7.54225 22.0646L9.76936 19.8375C10.3844 19.2225 10.3844 18.2254 9.76936 17.6104L6.05756 13.8986C5.44256 13.2836 4.44545 13.2836 3.83045 13.8986L0.860998 16.8681C-1.599 19.3281 1.39233 26.3078 7.54225 32.4577C13.6922 38.6076 20.6719 41.5989 23.1319 39.1389L26.1013 36.1695C26.7163 35.5545 26.7163 34.5574 26.1013 33.9424Z" fill="#DE6518"/>
<path d="M36.3873 3.02797C34.1092 1.07539 31.0917 0 27.8906 0C24.6895 0 21.672 1.07539 19.394 3.02797C17.0643 5.02492 15.7812 7.69516 15.7812 10.5469C15.7812 13.3986 17.0643 16.0688 19.394 18.0658C19.8115 18.4236 20.254 18.7517 20.7177 19.0494C19.8614 20.3396 18.8603 21.5255 17.7344 22.5805C20.1904 22.3773 22.5191 21.7265 24.6402 20.7114C25.6859 20.9633 26.7771 21.0938 27.8906 21.0938C31.0917 21.0938 34.1092 20.0184 36.3873 18.0658C38.717 16.0688 40 13.3986 40 10.5469C40 7.69516 38.717 5.02492 36.3873 3.02797ZM22.4219 12.1094C21.5589 12.1094 20.8594 11.4098 20.8594 10.5469C20.8594 9.68391 21.5589 8.98438 22.4219 8.98438C23.2848 8.98438 23.9844 9.68391 23.9844 10.5469C23.9844 11.4098 23.2848 12.1094 22.4219 12.1094ZM27.8906 12.1094C27.0277 12.1094 26.3281 11.4098 26.3281 10.5469C26.3281 9.68391 27.0277 8.98438 27.8906 8.98438C28.7536 8.98438 29.4531 9.68391 29.4531 10.5469C29.4531 11.4098 28.7536 12.1094 27.8906 12.1094ZM33.3594 12.1094C32.4964 12.1094 31.7969 11.4098 31.7969 10.5469C31.7969 9.68391 32.4964 8.98438 33.3594 8.98438C34.2223 8.98438 34.9219 9.68391 34.9219 10.5469C34.9219 11.4098 34.2223 12.1094 33.3594 12.1094Z" fill="#DE6518"/>
</svg>

<svg width="40" height="40" fill="none" xmlns="http://www.w3.org/2000/svg"><path d="M26.101 33.942l-3.711-3.711a1.575 1.575 0 00-2.228 0l-2.227 2.227A21.85 21.85 0 017.542 22.065l2.227-2.228a1.575 1.575 0 000-2.227L6.058 13.9a1.575 1.575 0 00-2.228 0L.861 16.87c-2.46 2.46.531 9.439 6.681 15.589s13.13 9.14 15.59 6.68l2.97-2.968a1.575 1.575 0 000-2.228zM36.387 3.028C34.11 1.075 31.092 0 27.891 0c-3.201 0-6.219 1.075-8.497 3.028-2.33 1.997-3.613 4.667-3.613 7.519 0 2.852 1.283 5.522 3.613 7.519.418.358.86.686 1.324.983a19.978 19.978 0 01-2.984 3.532 19.744 19.744 0 006.906-1.87c1.046.252 2.137.383 3.25.383 3.202 0 6.22-1.076 8.497-3.028 2.33-1.997 3.613-4.667 3.613-7.52 0-2.85-1.283-5.521-3.613-7.518zm-13.965 9.081a1.562 1.562 0 110-3.125 1.562 1.562 0 010 3.125zm5.469 0a1.563 1.563 0 110-3.125 1.563 1.563 0 010 3.125zm5.468 0a1.562 1.562 0 110-3.125 1.562 1.562 0 010 3.125z" fill="#DE6518"/></svg>
